X:173
T: WONNE SCHWEBET LAECHELT UEBERALL
N: B0207
O: Europa, Mitteleuropa, Deutschland
R: Jahreszeiten - Lied, Fruehling
M: 6/8
L: 1/8
K: F
 | c2cc2A | c2ABAG | F2z4 |
A2AAGA | cBAA2G |
A2AAGA | cBAA2G |
c2cc2A | f2cBAG | F2z4

@@@ Tune index: 1976
